X:10
T:Joseph's Jig
C:David Milligan
R:jig
D:"The big day in" by Simon thoumire & David Milligan
Z:Transcribed by Lionel Gueganton
L:1/8
M:6/8
K:F
|: FcFGcG | AcfecB | A/B/cAGcG    | FBFEFG        |
   FcFGcG | AcfecB | A/B/cAGcG    |1 FBFAFG      :|2 FCGCAB |
K:Amix
|: cAEEAc | dGBGdG | cBAcef       | gfgdgB        |
   cAEEAc | dGBGdG | ce/c/ABd/B/G | Ac/A/EGB/G/D :|

